assets/Duck/Flat/duck_flat.svg

<svg width="32" height="32" viewBox="0 0 32 32" fill="none" xmlns="http://www.w3.org/2000/svg">
<path d="M14.6675 8.31979C14.9071 7.76829 15.04 7.15966 15.04 6.52C15.04 4.02367 13.0163 2 10.52 2C8.02367 2 6 4.02367 6 6.52C6 7.04514 6.08956 7.54937 6.25423 8.01824L6 8L7.00003 10C7.27003 10 7.45003 10.27 7.34003 10.52L6.24516 13L9 14L12.6012 13L14.67 8.32002L14.6675 8.31979Z" fill="#44911B"/>
<path d="M7 3.68005L4.79 6.15005C4.29 6.69005 3.58 7.00005 2.84 7.00005H2.51C2.23 7.00005 2 7.23005 2 7.51005C2 8.88005 3.12 10.0001 4.49 10.0001H7V3.68005Z" fill="#F9C23C"/>
<path d="M10.52 7.52002C11.0723 7.52002 11.52 7.0723 11.52 6.52002C11.52 5.96773 11.0723 5.52002 10.52 5.52002C9.96774 5.52002 9.52002 5.96773 9.52002 6.52002C9.52002 7.0723 9.96774 7.52002 10.52 7.52002Z" fill="#212121"/>
<path d="M11.71 15L12.59 13H6.23999L5.35999 15L8 16L11.4499 15.0701L6.50001 22L8.91615 29.7261C9.58049 29.9047 10.2791 30 11 30H19C24 30 27 25.08 27 19L23.98 15H11.71Z" fill="#D3D3D3"/>
<path d="M23.98 15C25.27 15 26.51 14.49 27.43 13.57C28.38 12.63 30 13.3 30 14.64V19C30 19.0713 29.9993 19.1424 29.998 19.2134C29.8844 25.1947 25.0087 30 19 30H16C18.9263 30 21.584 28.8602 23.5536 27H16.6C12.4 27 9.28125 24.1687 9.28125 19.9688C9.28125 19.9688 11.45 23.875 16.6 23.875C25.75 23.875 23.98 15 23.98 15Z" fill="#9B9B9B"/>
<path d="M5.36 15C4.25 17.51 3 19.54 3 22C3 25.73 5.55 28.86 9 29.75V22.4C9 20.99 9.34 19.59 9.99 18.34L11.71 15H5.36Z" fill="#A56953"/>
</svg>

<svg xmlns="http://www.w3.org/2000/svg" width="32" height="32" fill="none"><path fill="#44911B" d="M14.668 8.32a4.52 4.52 0 1 0-8.413-.302L6 8l1 2c.27 0 .45.27.34.52L6.245 13 9 14l3.601-1 2.069-4.68h-.002Z"/><path fill="#F9C23C" d="M7 3.68 4.79 6.15c-.5.54-1.21.85-1.95.85h-.33c-.28 0-.51.23-.51.51C2 8.88 3.12 10 4.49 10H7V3.68Z"/><path fill="#212121" d="M10.52 7.52a1 1 0 1 0 0-2 1 1 0 0 0 0 2Z"/><path fill="#D3D3D3" d="m11.71 15 .88-2H6.24l-.88 2L8 16l3.45-.93L6.5 22l2.416 7.726A8.017 8.017 0 0 0 11 30h8c5 0 8-4.92 8-11l-3.02-4H11.71Z"/><path fill="#9B9B9B" d="M23.98 15c1.29 0 2.53-.51 3.45-1.43.95-.94 2.57-.27 2.57 1.07V19c0 .071 0 .142-.002.213A10.994 10.994 0 0 1 19 30h-3c2.926 0 5.584-1.14 7.554-3H16.6c-4.2 0-7.319-2.831-7.319-7.031 0 0 2.169 3.906 7.319 3.906 9.15 0 7.38-8.875 7.38-8.875Z"/><path fill="#A56953" d="M5.36 15C4.25 17.51 3 19.54 3 22c0 3.73 2.55 6.86 6 7.75V22.4c0-1.41.34-2.81.99-4.06L11.71 15H5.36Z"/></svg>
